src/22x22/places/folder-gruvbox-material-yellow-music.svg

<?xml version="1.0" encoding="UTF-8"?>
<svg width="22" height="22" version="1" xmlns="http://www.w3.org/2000/svg">
 <rect x="1" y="8.5" width="20" height="12" rx="1" ry="1" opacity=".2"/>
 <path d="m1 16c0 0.554 0.446 1 1 1h18c0.554 0 1-0.446 1-1v-11c0-0.554-0.446-1-1-1h-9c-1.5 0-2-2-3.5-2h-5.5c-0.554 0-1 0.446-1 1" fill="#b47109"/>
 <rect x="1" y="7.5" width="20" height="12" rx="1" ry="1" opacity=".2"/>
 <rect x="3" y="6" width="16" height="8" rx="1" ry="1" fill="#f9eabf"/>
 <rect x="1" y="8" width="20" height="12" rx="1" ry="1" fill="#d8a657"/>
 <path d="m2 2c-0.554 0-1 0.446-1 1v0.5c0-0.554 0.446-1 1-1h5.5c1.5 0 2 2 3.5 2h9c0.554 0 1 0.446 1 1v-0.5c0-0.554-0.446-1-1-1h-9c-1.5 0-2-2-3.5-2z" fill="#f9eabf" opacity=".1"/>
 <path d="m10 14.088c-0.161-0.057-0.33-0.087-0.5-0.088-0.828 0-1.5 0.672-1.5 1.5 0 0.829 0.672 1.5 1.5 1.5s1.5-0.671 1.5-1.5v-3.5h3v2.088c-0.161-0.057-0.33-0.087-0.5-0.088-0.828 0-1.5 0.672-1.5 1.5 0 0.829 0.672 1.5 1.5 1.5s1.5-0.671 1.5-1.5v-5c0-0.277-0.334-0.5-0.75-0.5h-3.5c-0.416 0-0.75 0.223-0.75 0.5" fill="#574833"/>
</svg>

<svg xmlns="http://www.w3.org/2000/svg" width="22" height="22" version="1">
 <rect style="opacity:0.2" width="20" height="12" x="1" y="8.5" rx="1" ry="1"/>
 <path style="fill:#b47109" d="M 1,16 C 1,16.554 1.446,17 2,17 H 20 C 20.554,17 21,16.554 21,16 V 5 C 21,4.446 20.554,4 20,4 H 11 C 9.5,4 9,2 7.5,2 H 2 C 1.446,2 1,2.446 1,3"/>
 <rect style="opacity:0.2" width="20" height="12" x="1" y="7.5" rx="1" ry="1"/>
 <rect style="fill:#f9eabf" width="16" height="8" x="3" y="6" rx="1" ry="1"/>
 <rect style="fill:#d8a657" width="20" height="12" x="1" y="8" rx="1" ry="1"/>
 <path style="opacity:0.1;fill:#f9eabf" d="M 2,2 C 1.446,2 1,2.446 1,3 V 3.5 C 1,2.946 1.446,2.5 2,2.5 H 7.5 C 9,2.5 9.5,4.5 11,4.5 H 20 C 20.554,4.5 21,4.946 21,5.5 V 5 C 21,4.446 20.554,4 20,4 H 11 C 9.5,4 9,2 7.5,2 Z"/>
 <path style="fill:#574833" d="M 10,14.088 C 9.839,14.031 9.67,14.001 9.5,14 8.672,14 8,14.672 8,15.5 8,16.329 8.672,17 9.5,17 10.328,17 11,16.329 11,15.5 V 12 H 14 V 14.088 C 13.839,14.031 13.67,14.001 13.5,14 12.672,14 12,14.672 12,15.5 12,16.329 12.672,17 13.5,17 14.328,17 15,16.329 15,15.5 V 10.5 C 15,10.223 14.666,10 14.25,10 H 10.75 C 10.334,10 10,10.223 10,10.5"/>
</svg>
